X:1
T:No Balls At All
M:3/4
L:1/4
K:C
 G| G c3/2 c/2| c B c| d A3/2 A/2| d2 c| B B B| B A G| f e d| c2 G|\
 G c3/2 c/2| c B c| d A3/2 A/2| d2 c| B B3/2 B/2| B A G| f e d| c d e|\
 G c3/2 c/2| c3| A d3/2 d/2| d2 c| B B3/2 B/2| B A G| f e d| c2||
